X: 13601
T: Flypolska
R: waltz
M: 3/4
K: Edorian
E/F/G/A/ Be d B/d/|c A/c/ B/A/G/F/ E2|E/F/G/A/ Be d B/d/|cA B2 B2|E/F/G/A/ Be d B/d/|c A/c/ B/A/G/F/ E2|
E/F/G/A/ BG F E/D/|1 E2 E2 E2:|2 E4 f2|:f e/f/ d e/f/ g2|{a/} gf g/f/e/g/ f2|f e/f/ d e/f/ g2|
{a/} g f/g/ e/f/g/a/ b2|b g/b/ a f/a/ g e/g/|fd B2 B2|E/F/G/A/ BG F E/D/|1 E2 E2 f2:|2 E4 E2||

